icons/fabfile.svg

<!--
  - The MIT License (MIT)
  -
  - Copyright (c) 2015-2024 Elior "Mallowigi" Boukhobza
  -
  - Permission is hereby granted, free of charge, to any person obtaining a copy
  - of this software and associated documentation files (the "Software"), to deal
  - in the Software without restriction, including without limitation the rights
  - to use, copy, modify, merge, publish, distribute, sublicense, and/or sell
  - copies of the Software, and to permit persons to whom the Software is
  - furnished to do so, subject to the following conditions:
  -
  - The above copyright notice and this permission notice shall be included in all
  - copies or substantial portions of the Software.
  -
  - THE SOFTWARE IS PROVIDED "AS IS", WITHOUT WARRANTY OF ANY KIND, EXPRESS OR
  - IMPLIED, INCLUDING BUT NOT LIMITED TO THE WARRANTIES OF MERCHANTABILITY,
  - FITNESS FOR A PARTICULAR PURPOSE AND NONINFRINGEMENT. IN NO EVENT SHALL THE
  - AUTHORS OR COPYRIGHT HOLDERS BE LIABLE FOR ANY CLAIM, DAMAGES OR OTHER
  - LIABILITY, WHETHER IN AN ACTION OF CONTRACT, TORT OR OTHERWISE, ARISING FROM,
  - OUT OF OR IN CONNECTION WITH THE SOFTWARE OR THE USE OR OTHER DEALINGS IN THE
  - SOFTWARE.
  -
  -->

<svg  version="1.1" xmlns="http://www.w3.org/2000/svg" viewBox="0 0 512 512" width="16px" height="16px">
  <path fill="#3882be" data-iconColor="Fabfile"
        d="M2.1970637,281.849884C76.092598,259.7512207,133.98909,207.3544006,184.3860321,163.157074c22.7985992,12.3992462,28.2982788,17.8989105,55.1966705,33.0979919c-27.5983429,26.8983765-134.5918579,126.2923584-213.1871033,140.7914734C4.9968972,333.646759-4.7025127,292.149292,2.1970637,281.849884z M274.7805481,101.0608368c0,0,33.7979431,30.3981628,53.0968018,42.0974426c17.2989197-17.2989502,62.7961731-16.5989914,64.8960571-31.6980743c0.6999817-17.2989578-4.7996826-42.0974503-14.499115-48.2970734C357.6755676,63.0631332,305.1787415,80.9620514,274.7805481,101.0608368z M508.6664124,231.4529419c-73.8955383,22.0986633-139.3915405,66.8959351-189.7884827,111.0932922c-24.7984924-13.7991638-24.1985474-17.8989258-50.3969421-35.8978271c27.5983276-26.8983765,128.3922119-118.6928253,218.7867737-132.4919891C508.6664124,177.656189,515.565979,221.1535645,508.6664124,231.4529419z M239.6826935,404.042511c0,0-31.098114-24.7984924-49.696991-37.9977112c-25.4984589,15.8990173-73.1955719,24.7984924-73.8955231,41.3974915c-0.6999588,17.2989197,11.6992874,38.6976624,21.3986969,44.8972778C158.1876221,452.3395691,209.2845154,424.0412903,239.6826935,404.042511z M116.0901794,118.9597549c-7.5995483-4.0997543,8.2994995-61.3962898,15.8990326-59.9963722c89.6945801,9.6994133,211.8871613,113.8930969,240.8853912,142.8913422c-23.4985657,17.2989655-28.2982483,17.2989655-53.0967712,37.9977112C292.7794495,207.3544006,180.2862701,134.1588287,116.0901794,118.9597549z M395.6732483,394.3430786c7.5995483,4.099762-11.6993103,59.9963684-19.2987976,58.6964417c-89.6946106-9.6994019-198.088028-126.2923584-238.785553-155.2906189c23.4985657-17.2989197,28.2982788-17.2989197,53.0967712-37.9976807C223.7836456,288.04953,331.4771423,379.1440125,395.6732483,394.3430786z M466.0689697,263.4509888c0,0-35.4978638,16.3990173-65.9960022,38.3976746c24.3984985,8.2994995,78.1952515,43.6973877,90.3945312,34.4979248c12.6992493-11.6993103,23.5985413-36.5978088,21.1987305-47.8970947C501.7668152,276.5502014,489.9675293,277.7501221,466.0689697,263.4509888z M49.7941895,247.5519714c0,0,29.9981842-20.498764,60.4963379-42.4974213c-27.198349-7.5995483-72.6956024-34.7978973-93.8943176-28.2982941c-12.6992273,11.699295-18.0989017,40.0975647-15.5990534,51.2968903C15.4962616,238.6524963,29.395422,238.8524933,49.7941895,247.5519714z"/>
</svg>

<svg xmlns="http://www.w3.org/2000/svg" viewBox="0 0 512 512"><path fill="#3882be" d="M2.197 281.85c73.896-22.099 131.792-74.496 182.189-118.693 22.799 12.4 28.298 17.899 55.197 33.098-27.599 26.898-134.592 126.292-213.187 140.792-21.4-3.4-31.099-44.898-24.199-55.197m272.584-180.79s33.797 30.399 53.096 42.098c17.3-17.299 62.797-16.599 64.896-31.698.7-17.299-4.8-42.097-14.499-48.297-20.598-.1-73.095 17.8-103.493 37.898m233.885 130.393c-73.895 22.099-139.391 66.896-189.788 111.093-24.799-13.799-24.199-17.899-50.397-35.898 27.598-26.898 128.392-118.692 218.787-132.492 21.398 3.5 28.298 46.998 21.398 57.297m-268.983 172.59s-31.098-24.799-49.697-37.998c-25.499 15.899-73.196 24.798-73.896 41.397-.7 17.3 11.7 38.698 21.399 44.898 20.699 0 71.796-28.299 102.194-48.297M116.09 118.96c-7.6-4.1 8.3-61.397 15.9-59.997 89.694 9.7 211.886 113.893 240.885 142.892-23.499 17.299-28.299 17.299-53.097 37.997C292.779 207.354 180.286 134.16 116.09 118.96m279.583 275.383c7.6 4.1-11.7 59.996-19.299 58.697-89.694-9.7-198.088-126.293-238.785-155.291 23.498-17.299 28.298-17.299 53.097-37.998 33.098 28.299 140.791 119.393 204.987 134.592m70.396-130.892s-35.498 16.399-65.996 38.398c24.398 8.3 78.195 43.697 90.394 34.498 12.7-11.7 23.599-36.598 21.2-47.898-9.9-11.899-21.7-10.699-45.598-24.998M49.794 247.552s29.998-20.499 60.497-42.497c-27.199-7.6-72.696-34.798-93.895-28.299-12.699 11.7-18.099 40.098-15.599 51.297 14.7 10.6 28.598 10.8 48.997 19.499" data-iconColor="Fabfile"/></svg>
